img/mastodon-2.svg

<svg fill="none" height="24" viewBox="0 0 24 24" width="24" xmlns="http://www.w3.org/2000/svg" xmlns:xlink="http://www.w3.org/1999/xlink"><clipPath id="a"><path d="m0 0h24v24h-24z"/></clipPath><g clip-path="url(#a)"><path clip-rule="evenodd" d="m15.2169-.00004876-.3553.03009586c-.7703.4444459-1.5704.9184069-2.3704 1.3628529-.2666.14815-.563.23669-.8593.38484-.326.14815-.6522.32616-.9485.53357-.1482.11852-.2962.20717-.474.20717-.2074 0-.38518.0301-.59259.0301-1.12593-.02963-2.22189-.05938-3.34782-.11864-.2074-.02963-.3559.02941-.50405.20718-.53333.62223-1.03669 1.21471-1.57003 1.8073-.94815 1.06667-1.95579 2.01506-3.05209 2.90395-.237042.17778-.355446.3853-.325816.71123.088887.77037.177895 1.54052.266786 2.2813.02963.4148.11828.8299.20717 1.2448.05926.2963.02964.6811 0 .9774.00026.001.00033.0011.0006.0022.14814.4741.58761 4.0161.6765 4.342.23704.9482.47408 1.9257.74075 2.8739.05925.1778.20775.3559.3559.504.35556.326.77003.5924 1.12559.948.88889.8888 2.07859 1.7593 2.84897 2.7667.05925 0 .08889.0002.14815-.0295 1.06667-.4444 2.19225-.77 3.34778-.9774.2963-.0593.593-.178.6522-.5336.1778-.9185.3554-1.8073.5035-2.6962-.8296-.5037-1.6889-.5335-2.51852-.5335.11852.6222-.17743 1.1259-.38484 1.6296-.05926.0889-.23739.148-.35591.1777-.23703.0592-.5037.0297-.74074.1186-.26667.0889-.44433.0299-.62211-.2071-.38519-.5037-.77026-.978-1.2147-1.4225-.26667-.2666-.17767-.9482-.17767-1.0075 2.75041-2.7828 3.30803-2.5584 6.69619-3.3183.2667.2074.5627.3851.7998.6221.5037.4445 1.4522 1.7184 1.5411 1.8073.1778.1778.3597-.265.2412-.028 4.0339-6.2074 4.9745-7.5362 8.2328-11.67572-1.0667 0-2.163-.0294-3.2593-.05903-.1283.01376-.3717.02989-.4445.02952-.4331-.05006-1.2489-.10101-1.5549-.63386-.2074-.2963-2.4156-4.877372-2.7119-5.26255876z" fill="#000" fill-rule="evenodd"/></g></svg>

<svg width="24" height="24" viewBox="0 0 24 24" fill="none" xmlns="http://www.w3.org/2000/svg">
<g clip-path="url(#clip0_3174_5626)">
<path fill-rule="evenodd" clip-rule="evenodd" d="M15.2169 -4.87566e-05L14.8616 0.0300471C14.0913 0.474493 13.2912 0.948454 12.4912 1.3929C12.2246 1.54105 11.9282 1.62959 11.6319 1.77774C11.3059 1.92589 10.9797 2.1039 10.6834 2.31131C10.5352 2.42983 10.3872 2.51848 10.2094 2.51848C10.002 2.51848 9.82422 2.54858 9.61681 2.54858C8.49088 2.51895 7.39492 2.4892 6.26899 2.42994C6.06159 2.40031 5.91309 2.45935 5.76494 2.63712C5.23161 3.25935 4.72825 3.85183 4.19491 4.44442C3.24676 5.51109 2.23912 6.45948 1.14282 7.34837C0.905778 7.52615 0.787374 7.73367 0.817004 8.0596C0.905891 8.82997 0.994899 9.60012 1.08379 10.3409C1.11342 10.7557 1.20207 11.1708 1.29096 11.5857C1.35022 11.882 1.3206 12.2668 1.29096 12.5631C1.29122 12.5641 1.29129 12.5642 1.29156 12.5653C1.4397 13.0394 1.87917 16.5814 1.96806 16.9073C2.2051 17.8555 2.44214 18.833 2.70881 19.7812C2.76806 19.959 2.91656 20.1371 3.06471 20.2852C3.42027 20.6112 3.83474 20.8776 4.1903 21.2332C5.07919 22.122 6.26889 22.9925 7.03927 23.9999C7.09852 23.9999 7.12816 24.0001 7.18742 23.9704C8.25409 23.526 9.37967 23.2004 10.5352 22.993C10.8315 22.9337 11.1282 22.815 11.1874 22.4594C11.3652 21.5409 11.5428 20.6521 11.6909 19.7632C10.8613 19.2595 10.002 19.2297 9.17238 19.2297C9.2909 19.8519 8.99495 20.3556 8.78754 20.8593C8.72828 20.9482 8.55015 21.0073 8.43163 21.037C8.1946 21.0962 7.92793 21.0667 7.69089 21.1556C7.42422 21.2445 7.24656 21.1855 7.06878 20.9485C6.68359 20.4448 6.29852 19.9705 5.85408 19.526C5.58741 19.2594 5.67641 18.5778 5.67641 18.5185C8.42682 15.7357 8.98444 15.9601 12.3726 15.2002C12.6393 15.4076 12.9353 15.5853 13.1724 15.8223C13.6761 16.2668 14.6246 17.5407 14.7135 17.6296C14.8913 17.8074 15.0732 17.3646 14.9547 17.6016C18.9886 11.3942 19.9292 10.0654 23.1875 5.92588C22.1208 5.92588 21.0245 5.89648 19.9282 5.86685C19.7999 5.88061 19.5565 5.89674 19.4837 5.89637C19.0506 5.84631 18.2348 5.79536 17.9288 5.26251C17.7214 4.96621 15.5132 0.385138 15.2169 -4.87566e-05Z" fill="black"/>
</g>
<defs>
<clipPath id="clip0_3174_5626">
<rect width="24" height="24" fill="white"/>
</clipPath>
</defs>
</svg>
